build/logo/JinjaOutline.svg

<svg xmlns="http://www.w3.org/2000/svg" fill="none" viewBox="0 0 24 24" focusable="false"><path d="M0 0H24V24H0z"/><path fill="#74767B" fill-rule="evenodd" d="M17.2295 7.61768C18.1012 7.37272 18.9207 7.06934 19.688 6.70752C20.0176 6.55225 20.1543 6.17163 19.999 5.84229C19.8437 5.51318 19.4629 5.37646 19.1338 5.53174C17.2223 6.43294 14.9414 6.9423 12.291 7.05981C11.1335 7.11108 9.87874 7.08984 8.52686 6.99609C7.3654 6.91536 6.08268 6.77694 4.67871 6.58081C4.31836 6.53052 3.99561 6.77417 3.94482 7.13477C3.89453 7.49512 4.13818 7.81812 4.49902 7.86841C5.139 7.95776 5.75488 8.03548 6.34668 8.10156L6.34668 11.0308L5.68066 11.0308C5.31641 11.0308 5.03076 11.3169 5.03076 11.6809C5.03076 12.0447 5.31641 12.3308 5.68066 12.3308L6.34668 12.3308L6.34668 18.2358C6.34668 18.5999 6.63281 18.886 6.99658 18.886C7.36084 18.886 7.64648 18.5999 7.64648 18.2358L7.64648 12.3308L11.7646 12.3308L15.9297 12.3308L15.9297 18.2358C15.9297 18.5999 16.2158 18.886 16.5796 18.886C16.9438 18.886 17.2295 18.5999 17.2295 18.2358L17.2295 12.3308L17.9429 12.3308C18.3066 12.3308 18.5928 12.0447 18.5928 11.6809C18.5928 11.3169 18.3066 11.0308 17.9429 11.0308L17.2295 11.0308L17.2295 7.61768ZM15.9297 7.93164C14.8389 8.15446 13.6751 8.29533 12.4385 8.35425L12.4385 11.0308L15.9297 11.0308L15.9297 7.93164ZM11.1387 8.38672C10.2822 8.38965 9.38183 8.3584 8.43701 8.29297C8.1792 8.27507 7.91569 8.25439 7.64648 8.23096L7.64648 11.0308L11.1387 11.0308L11.1387 8.38672Z"/></svg>

<svg xmlns="http://www.w3.org/2000/svg" fill="none" viewBox="0 0 24 24" focusable="false"><path fill="#74767B" fill-rule="evenodd" d="M17.22 7.61c.88-.24 1.7-.55 2.46-.91.33-.15.47-.53.31-.86a.63.63 0 0 0-.86-.31c-1.91.9-4.19 1.41-6.84 1.52-1.16.06-2.42.03-3.77-.06-1.16-.08-2.44-.22-3.85-.41a.64.64 0 0 0-.73.55c-.05.36.19.68.55.73.64.09 1.26.17 1.85.24v2.93h-.66c-.37 0-.65.28-.65.65 0 .36.28.65.65.65h.66v5.9c0 .36.29.65.65.65.37 0 .65-.29.65-.65v-5.9h8.28v5.9c0 .36.29.65.65.65.37 0 .65-.29.65-.65v-5.9h.72c.36 0 .65-.29.65-.65 0-.37-.29-.65-.65-.65h-.72zm-1.3.32c-1.09.22-2.25.36-3.49.42v2.68h3.49zm-4.79.45q-1.275 0-2.7-.09l-.79-.06v2.8h3.49z"/></svg>
